public/svgs/value/title3-cn.svg

<svg xmlns="http://www.w3.org/2000/svg" width="1840" height="728" fill="none" viewBox="0 0 1840 728"><path fill="#000" d="M14.28 131V15.08h20.496v97.272h52.416V131zm89.539-27.384V42.464q0-27.384 27.384-27.384h38.472q27.384 0 27.384 27.384v61.152q0 27.384-27.384 27.384h-38.472q-27.384 0-27.384-27.384m20.496 1.512q0 7.224 7.392 7.224h37.464q7.392 0 7.392-7.224V40.952q0-7.224-7.392-7.224h-37.464q-7.392 0-7.392 7.224zM223.952 131V15.08h22.344l51.408 82.656V15.08H318.2V131h-22.176l-51.576-82.656V131zm121.203-27.384V42.464q0-27.384 27.384-27.384h49.224l9.912 7.728v10.92h-58.632q-7.392 0-7.392 7.224v64.176q0 7.224 7.392 7.224h41.496V80.264h-24.528V61.616h45.024V131h-62.496q-27.384 0-27.384-27.384M460.202 131V15.08h77.952v18.648h-57.456v27.888h52.416v18.648h-52.416v32.088h57.456V131zm89.482-111.888 2.688-4.032h17.808l28.728 97.272h3.192l28.728-97.272h17.976l2.52 4.032L617.052 131h-33.264zM668.725 131V15.08h20.496V131zm38.807-97.272V15.08h93.576v18.648h-36.456V131h-20.664V33.728zm100.879-14.616 2.52-4.032h17.472l27.384 52.584 27.552-52.584h17.64l2.352 4.032-37.128 70.224V131h-20.664V89.336zM961.085 131V15.08h54.095c18.26 0 27.38 9.128 27.38 27.384v10.584q0 5.712-3.36 9.744l-5.88 7.056 7.06 5.88c3.7 3.024 5.54 7.504 5.54 13.44v14.448c0 18.256-9.12 27.384-27.38 27.384zm20.496-18.648h36.459c4.92 0 7.39-2.408 7.39-7.224v-17.64c0-4.816-2.47-7.224-7.39-7.224h-36.459zm0-50.736h33.099c4.92 0 7.39-2.464 7.39-7.392V40.952c0-4.816-2.47-7.224-7.39-7.224h-33.099zM1070.19 131V15.08h20.49V131zm47.37-27.384V42.464c0-18.256 9.13-27.384 27.38-27.384h38.48c18.25 0 27.38 9.128 27.38 27.384v61.152c0 18.256-9.13 27.384-27.38 27.384h-38.48c-18.25 0-27.38-9.128-27.38-27.384m20.5 1.512c0 4.816 2.46 7.224 7.39 7.224h37.46c4.93 0 7.39-2.408 7.39-7.224V40.952c0-4.816-2.46-7.224-7.39-7.224h-37.46c-4.93 0-7.39 2.408-7.39 7.224zm89.39-71.4V15.08h93.57v18.648h-36.45V131h-20.67V33.728zM1339.41 131V15.08h77.95v18.648h-57.45v27.888h52.41v18.648h-52.41v32.088h57.45V131zm98.89-27.384V42.464q0-27.384 27.39-27.384h45.69l9.92 7.728v10.92h-55.11c-4.93 0-7.39 2.408-7.39 7.224v64.176c0 4.816 2.46 7.224 7.39 7.224h55.11v10.92l-9.92 7.728h-45.69q-27.39 0-27.39-27.384M1544 131V15.08h20.49v46.536h48.89V15.08h20.5V131h-20.5V80.264h-48.89V131zM14.28 295V179.08h20.496V295zm44.015-7.728v-10.92h51.912q7.392 0 7.392-7.224V256.36q0-6.384-5.712-7.56l-34.104-6.888q-19.488-3.864-19.488-26.208v-9.24q0-27.384 27.384-27.384h39.144l9.912 7.728v10.92H86.183q-7.392 0-7.392 7.224v11.256q0 6.384 5.712 7.56l34.104 6.72q19.488 4.032 19.488 26.208v10.92q0 27.384-27.384 27.384H68.207zm132.585 3.696 35.784-111.888h31.92L294.2 290.968 291.68 295h-17.304l-7.896-25.536H218.6L210.536 295h-16.968zm33.432-40.152h36.624l-16.8-53.088h-3.192zM14.28 459V343.08h25.2l34.776 74.256 34.776-74.256h25.2V459h-20.664v-80.976l-30.576 65.184h-17.64l-30.576-65.184V459zm146.797-27.384v-61.152q0-27.384 27.384-27.384h38.472q27.384 0 27.384 27.384v61.152q0 27.384-27.384 27.384h-38.472q-27.384 0-27.384-27.384m20.496 1.512q0 7.224 7.392 7.224h37.464q7.392 0 7.392-7.224v-64.176q0-7.224-7.392-7.224h-37.464q-7.392 0-7.392 7.224zM281.21 459V343.08h55.776q27.384 0 27.384 27.384v18.984q0 21.168-16.8 25.704l20.16 39.48-2.52 4.368h-17.472l-21.504-42.336h-24.528V459zm20.496-60.984h34.776q7.392 0 7.392-7.392v-21.672q0-7.224-7.392-7.224h-34.776zm76.697 56.952 35.784-111.888h31.92l35.616 111.888-2.52 4.032h-17.304l-7.896-25.536h-47.88L398.059 459h-16.968zm33.432-40.152h36.624l-16.8-53.088h-3.192zM499.249 459V343.08h20.496v97.272h52.416V459z"/><path fill="#bb1212" d="m123.4 548.4-15.6 19.4c-11.6-9.6-32-25.2-47.6-36l15.4-17.4c16.2 10.4 36.4 25.2 47.8 34M26 568.6l22.6 5.8C44.4 598 38 626 28 643.2l-23-8.6c9.8-17.2 17.4-42.6 21-66m69 106.8h30.4c10.2 0 11.8-5.8 13.4-34 5.8 4.2 16.4 8.4 23.4 10-3.2 36-10.2 47.8-34.8 47.8h-35c-24.6 0-33-6.8-34.4-28.8-11.6 8-24.2 15.2-37 21.4-3.6-5.4-10.8-14.2-15.6-18.8 18.6-8.4 36.2-19.2 52.4-31.6v-81.8h25.4V620c30.2-28.4 54.2-61.6 69.4-93.6l24 9.4c-21.8 41.8-53.2 83-93.4 115.8v12.2c0 10.2 1.6 11.6 11.8 11.6m48.2-83.2 21.4-10.2c12.6 18.8 25.2 43.2 30.2 59.6L172 653.2c-4.6-16.6-17-42.2-28.8-61m245.6-49.4-18.2 10.6c-3.2-7.4-10.8-18.8-17.8-27l17.2-9.6c7.2 8 15.2 18.8 18.8 26M228.6 702.2l-22.6-9.4c8-9.2 18-25.2 24.6-39l22.4 5.8c-6.4 14.4-16.2 31.4-24.4 42.6m36.8-40.6 22-2.4c2.6 12 5 27.6 5.2 37.4l-23.4 3.4c0-9.8-1.6-26-3.8-38.4m123.4-85.4h-36.4c7.4 25.2 20 46 40.4 56.4-5.2 4.8-12.2 13.6-15.6 20-15.8-9.8-27-24.8-35.2-43.4-7.8 17-22.2 33.2-46.6 46-3.8-5.4-11.2-12.2-16.6-16.6 34.6-17.8 45.8-40.8 49.2-62.4h-25.4V562c-14.6 45.6-41.6 74.2-75.8 89.2-3.4-5.2-11.4-14.4-16.6-18.2 14.6-5.8 27.6-13.6 38.6-24-6-5-13.2-10.2-19.4-14.2l12.8-12.2c6 3.6 13 8.2 19 12.6 2.8-3.8 5.6-8 8-12.2-6.2-4.2-13.8-8.8-20.4-12.2l10.4-13.2c5.4 2.2 12 5.8 17.8 9.4 2.2-5.4 3.8-11 5.4-17h-25.6c-10 17.8-22.2 34.4-36.4 46.6-3.6-4.6-11-11.6-15.8-15.2 20.4-16.6 36.8-45.2 44.2-68.6l22.6 5.8q-2.4 6-5.4 12.6h24.2l4.2-.6 14.8 5.6c-1.2 6-2.6 12-4.2 17.6h24.2v-36.4h22.6v36.4h37zm-83 85 22.2-3.8c5 11.6 10 27.4 11.8 37.2l-23.6 4.6c-1.2-9.8-5.8-25.8-10.4-38m40.8-.4 21-8.8c9.2 12.2 20.2 28.8 25.2 39.8L370.4 702c-4.4-10.8-14.8-28.4-23.8-41.2"/></svg>

<svg width="1840" height="728" viewBox="0 0 1840 728" fill="none" xmlns="http://www.w3.org/2000/svg">
<path d="M14.28 131V15.08H34.776V112.352H87.192V131H14.28ZM103.819 103.616V42.464C103.819 24.208 112.947 15.08 131.203 15.08H169.675C187.931 15.08 197.059 24.208 197.059 42.464V103.616C197.059 121.872 187.931 131 169.675 131H131.203C112.947 131 103.819 121.872 103.819 103.616ZM124.315 105.128C124.315 109.944 126.779 112.352 131.707 112.352H169.171C174.099 112.352 176.563 109.944 176.563 105.128V40.952C176.563 36.136 174.099 33.728 169.171 33.728H131.707C126.779 33.728 124.315 36.136 124.315 40.952V105.128ZM223.952 131V15.08H246.296L297.704 97.736V15.08H318.2V131H296.024L244.448 48.344V131H223.952ZM345.155 103.616V42.464C345.155 24.208 354.283 15.08 372.539 15.08H421.763L431.675 22.808V33.728H373.043C368.115 33.728 365.651 36.136 365.651 40.952V105.128C365.651 109.944 368.115 112.352 373.043 112.352H414.539V80.264H390.011V61.616H435.035V131H372.539C354.283 131 345.155 121.872 345.155 103.616ZM460.202 131V15.08H538.154V33.728H480.698V61.616H533.114V80.264H480.698V112.352H538.154V131H460.202ZM549.684 19.112L552.372 15.08H570.18L598.908 112.352H602.1L630.828 15.08H648.804L651.324 19.112L617.052 131H583.788L549.684 19.112ZM668.725 131V15.08H689.221V131H668.725ZM707.532 33.728V15.08H801.108V33.728H764.652V131H743.988V33.728H707.532ZM808.411 19.112L810.931 15.08H828.403L855.787 67.664L883.339 15.08H900.979L903.331 19.112L866.203 89.336V131H845.539V89.336L808.411 19.112ZM961.085 131V15.08H1015.18C1033.44 15.08 1042.56 24.208 1042.56 42.464V53.048C1042.56 56.856 1041.44 60.104 1039.2 62.792L1033.32 69.848L1040.38 75.728C1044.08 78.752 1045.92 83.232 1045.92 89.168V103.616C1045.92 121.872 1036.8 131 1018.54 131H961.085ZM981.581 112.352H1018.04C1022.96 112.352 1025.43 109.944 1025.43 105.128V87.488C1025.43 82.672 1022.96 80.264 1018.04 80.264H981.581V112.352ZM981.581 61.616H1014.68C1019.6 61.616 1022.07 59.152 1022.07 54.224V40.952C1022.07 36.136 1019.6 33.728 1014.68 33.728H981.581V61.616ZM1070.19 131V15.08H1090.68V131H1070.19ZM1117.56 103.616V42.464C1117.56 24.208 1126.69 15.08 1144.94 15.08H1183.42C1201.67 15.08 1210.8 24.208 1210.8 42.464V103.616C1210.8 121.872 1201.67 131 1183.42 131H1144.94C1126.69 131 1117.56 121.872 1117.56 103.616ZM1138.06 105.128C1138.06 109.944 1140.52 112.352 1145.45 112.352H1182.91C1187.84 112.352 1190.3 109.944 1190.3 105.128V40.952C1190.3 36.136 1187.84 33.728 1182.91 33.728H1145.45C1140.52 33.728 1138.06 36.136 1138.06 40.952V105.128ZM1227.45 33.728V15.08H1321.02V33.728H1284.57V131H1263.9V33.728H1227.45ZM1339.41 131V15.08H1417.36V33.728H1359.91V61.616H1412.32V80.264H1359.91V112.352H1417.36V131H1339.41ZM1438.3 103.616V42.464C1438.3 24.208 1447.43 15.08 1465.69 15.08H1511.38L1521.3 22.808V33.728H1466.19C1461.26 33.728 1458.8 36.136 1458.8 40.952V105.128C1458.8 109.944 1461.26 112.352 1466.19 112.352H1521.3V123.272L1511.38 131H1465.69C1447.43 131 1438.3 121.872 1438.3 103.616ZM1544 131V15.08H1564.49V61.616H1613.38V15.08H1633.88V131H1613.38V80.264H1564.49V131H1544ZM14.28 295V179.08H34.776V295H14.28ZM58.2947 287.272V276.352H110.207C115.135 276.352 117.599 273.944 117.599 269.128V256.36C117.599 252.104 115.695 249.584 111.887 248.8L77.7827 241.912C64.7907 239.336 58.2947 230.6 58.2947 215.704V206.464C58.2947 188.208 67.4227 179.08 85.6787 179.08H124.823L134.735 186.808V197.728H86.1827C81.2547 197.728 78.7907 200.136 78.7907 204.952V216.208C78.7907 220.464 80.6947 222.984 84.5027 223.768L118.607 230.488C131.599 233.176 138.095 241.912 138.095 256.696V267.616C138.095 285.872 128.967 295 110.711 295H68.2067L58.2947 287.272ZM190.88 290.968L226.664 179.08H258.584L294.2 290.968L291.68 295H274.376L266.48 269.464H218.6L210.536 295H193.568L190.88 290.968ZM224.312 250.816H260.936L244.136 197.728H240.944L224.312 250.816ZM14.28 459V343.08H39.48L74.256 417.336L109.032 343.08H134.232V459H113.568V378.024L82.992 443.208H65.352L34.776 378.024V459H14.28ZM161.077 431.616V370.464C161.077 352.208 170.205 343.08 188.461 343.08H226.933C245.189 343.08 254.317 352.208 254.317 370.464V431.616C254.317 449.872 245.189 459 226.933 459H188.461C170.205 459 161.077 449.872 161.077 431.616ZM181.573 433.128C181.573 437.944 184.037 440.352 188.965 440.352H226.429C231.357 440.352 233.821 437.944 233.821 433.128V368.952C233.821 364.136 231.357 361.728 226.429 361.728H188.965C184.037 361.728 181.573 364.136 181.573 368.952V433.128ZM281.21 459V343.08H336.986C355.242 343.08 364.37 352.208 364.37 370.464V389.448C364.37 403.56 358.77 412.128 347.57 415.152L367.73 454.632L365.21 459H347.738L326.234 416.664H301.706V459H281.21ZM301.706 398.016H336.482C341.41 398.016 343.874 395.552 343.874 390.624V368.952C343.874 364.136 341.41 361.728 336.482 361.728H301.706V398.016ZM378.403 454.968L414.187 343.08H446.107L481.723 454.968L479.203 459H461.899L454.003 433.464H406.123L398.059 459H381.091L378.403 454.968ZM411.835 414.816H448.459L431.659 361.728H428.467L411.835 414.816ZM499.249 459V343.08H519.745V440.352H572.161V459H499.249Z" fill="black"/>
<path d="M123.4 548.4L107.8 567.8C96.2 558.2 75.8 542.6 60.2 531.8L75.6 514.4C91.8 524.8 112 539.6 123.4 548.4ZM26 568.6L48.6 574.4C44.4 598 38 626 28 643.2L5 634.6C14.8 617.4 22.4 592 26 568.6ZM95 675.4H125.4C135.6 675.4 137.2 669.6 138.8 641.4C144.6 645.6 155.2 649.8 162.2 651.4C159 687.4 152 699.2 127.4 699.2H92.4C67.8 699.2 59.4 692.4 58 670.4C46.4 678.4 33.8 685.6 21 691.8C17.4 686.4 10.2 677.6 5.4 673C24 664.6 41.6 653.8 57.8 641.4V559.6H83.2V620C113.4 591.6 137.4 558.4 152.6 526.4L176.6 535.8C154.8 577.6 123.4 618.8 83.2 651.6V663.8C83.2 674 84.8 675.4 95 675.4ZM143.2 592.2L164.6 582C177.2 600.8 189.8 625.2 194.8 641.6L172 653.2C167.4 636.6 155 611 143.2 592.2ZM388.8 542.8L370.6 553.4C367.4 546 359.8 534.6 352.8 526.4L370 516.8C377.2 524.8 385.2 535.6 388.8 542.8ZM228.6 702.2L206 692.8C214 683.6 224 667.6 230.6 653.8L253 659.6C246.6 674 236.8 691 228.6 702.2ZM265.4 661.6L287.4 659.2C290 671.2 292.4 686.8 292.6 696.6L269.2 700C269.2 690.2 267.6 674 265.4 661.6ZM388.8 576.2H352.4C359.8 601.4 372.4 622.2 392.8 632.6C387.6 637.4 380.6 646.2 377.2 652.6C361.4 642.8 350.2 627.8 342 609.2C334.2 626.2 319.8 642.4 295.4 655.2C291.6 649.8 284.2 643 278.8 638.6C313.4 620.8 324.6 597.8 328 576.2H302.6V562C288 607.6 261 636.2 226.8 651.2C223.4 646 215.4 636.8 210.2 633C224.8 627.2 237.8 619.4 248.8 609C242.8 604 235.6 598.8 229.4 594.8L242.2 582.6C248.2 586.2 255.2 590.8 261.2 595.2C264 591.4 266.8 587.2 269.2 583C263 578.8 255.4 574.2 248.8 570.8L259.2 557.6C264.6 559.8 271.2 563.4 277 567C279.2 561.6 280.8 556 282.4 550H256.8C246.8 567.8 234.6 584.4 220.4 596.6C216.8 592 209.4 585 204.6 581.4C225 564.8 241.4 536.2 248.8 512.8L271.4 518.6C269.8 522.6 268 526.8 266 531.2H290.2L294.4 530.6L309.2 536.2C308 542.2 306.6 548.2 305 553.8H329.2V517.4H351.8V553.8H388.8V576.2ZM305.8 661.2L328 657.4C333 669 338 684.8 339.8 694.6L316.2 699.2C315 689.4 310.4 673.4 305.8 661.2ZM346.6 660.8L367.6 652C376.8 664.2 387.8 680.8 392.8 691.8L370.4 702C366 691.2 355.6 673.6 346.6 660.8Z" fill="#BB1212"/>
</svg>
